!!!!SEGMENT: pl-kk--kk-i-111--001-003_anonim--deo-gratias-solenne-3tium.krn
!!!cenid: 18xx:2554
!!!COM: Anonim
!!!COM-rismid: pe30004985
!!!CDT:
!!!CNT:
!!!GTL: Deo gratias
!!!OTL: Solenne 3tium
!!!OMV: 003
!!!PDT: 1824
!!!AGN: Sacred
!!!SMS-siglum: PL-Kk
!!!SMS-shelfmark: Kk.I.111
!!!SMS-shelfwork: 001-003 G
!!!SMS-variant:
!!!SMS-altvar:
!!!NIFC-rismid: 1001157668
!!!URL-scan: http://repozytorium.nifc.pl/skany/pl-kk-nut--i-111
!!!ONB-nifc: UWAGA: A, T1, T2. Podział na poszególne Deo gratias. A: skan 0001 (m.in)
!!!key:
**kern	**text	**kern	**text	**kern	**text
*part3	*part3	*part2	*part2	*part1	*part1
*staff3	*staff3	*staff2	*staff2	*staff1	*staff1
*Itenor	*	*Itenor	*	*Ialto	*
*I"Tenore Vagante.	*	*I"Tenore Chorale.	*	*I"Alto.	*
*I'T 2	*	*I'T 1	*	*I'A	*
*clefC4	*	*clefC4	*	*clefC3	*
*k[]	*	*k[]	*	*k[]	*
*C:	*	*C:	*	*C:	*
*M2/1	*	*M2/1	*	*M2/1	*
*met(C|)	*	*met(C|)	*	*met(C|)	*
=1-	=1-	=1-	=1-	=1-	=1-
*all\right	*	*all\right	*	*all\right	*
!	!	!LO:TX:t=P:problem:kreska pseudotaktowa	!	!	!
!	!	!	!	!LO:TX:t=P:problem:kreska pseudotaktowa	!
1.G/	De-	1G/	De-	0d\	De-
!	!	!LO:TX:t=P:problem:kreska pseudotaktowa	!	!	!
.	.	1A\	.	.	.
!LO:TX:t=P:problem:kreska pseudotaktowa	!	!	!	!	!
2F#X/	.	.	.	.	.
=2-	=2-	=2-	=2-	=2-	=2-
!	!	!LO:TX:t=P:problem:kreska pseudotaktowa	!	!	!
2.G/	o	1Bn\	.	2.B/	-o
!	!	!	!	!LO:TX:t=P:problem:kreska pseudotaktowa	!
8Fn/L	.	.	.	4c/	.
!LO:TX:t=P:problem:kreska pseudotaktowa	!	!	!	!	!
8E/J	.	.	.	.	.
!	!	!LO:TX:t=P:problem:kreska pseudotaktowa	!	!LO:TX:t=P:problem:kreska pseudotaktowa	!
2.D/	.	1B\	.	0d\	.
!LO:TX:t=P:problem:kreska pseudotaktowa	!	!	!	!	!
4E/	.	.	.	.	.
=3-	=3-	=3-	=3-	=3-	=3-
!LO:TX:t=P:problem:kreska pseudotaktowa	!	!LO:TX:t=P:problem:kreska pseudotaktowa	!	!	!
1F/	.	1A\	.	.	.
!	!	!LO:TX:t=P:problem:kreska pseudotaktowa	!	!	!
2.E/	gra-	0c\	-o	2G/	.
*	*	*	*	*2\right	*
!	!	!	!	!LO:TX:t=P:problem:kreska pseudotaktowa	!
.	.	.	.	2g\	gra-
!LO:TX:t=P:problem:kreska pseudotaktowa	!	!	!	!	!
4D/	.	.	.	.	.
=4-	=4-	=4-	=4-	=4-	=4-
!	!	!	!	!LO:N:xstem:cue	!
2.C/	.	.	.	4g\	.
.	.	.	.	4f\	.
!	!	!	!	!LO:TX:t=P:problem:kreska pseudotaktowa	!
.	.	.	.	2e\	.
!LO:TX:t=P:problem:kreska pseudotaktowa	!	!	!	!	!
4D/	.	.	.	.	.
!	!	!LO:TX:t=P:problem:kreska pseudotaktowa	!	!LO:TX:t=P:problem:kreska pseudotaktowa	!
4E/	.	1B\	.	0d\	.
4F/	.	.	.	.	.
!LO:TX:t=P:problem:kreska pseudotaktowa	!	!	!	!	!
2G/	.	.	.	.	.
=5-	=5-	=5-	=5-	=5-	=5-
!	!	!LO:TX:t=P:problem:kreska pseudotaktowa	!	!	!
2F/	.	1A\	.	.	.
4E/	.	.	.	.	.
!LO:TX:t=P:problem:kreska pseudotaktowa	!	!	!	!	!
4F/	.	.	.	.	.
!	!	!LO:TX:t=P:problem:kreska pseudotaktowa	!	!	!
2G/	.	1G/	.	2B/	.
!LO:TX:t=P:problem:kreska pseudotaktowa	!	!	!	!LO:TX:t=P:problem:kreska pseudotaktowa	!
2E/	ti-	.	.	2c/	.
=6-	=6-	=6-	=6-	=6-	=6-
!	!	!LO:TX:t=P:problem:kreska pseudotaktowa	!	!	!
2E/	-as	0A\	.	2.c\	.
1e\	De-	.	.	.	.
!	!	!	!	!LO:TX:t=P:problem:kreska pseudotaktowa	!
.	.	.	.	4d\	.
.	.	.	.	2e\	.
*2\right	*	*	*	*	*
!LO:TX:t=P:problem:kreska pseudotaktowa	!	!	!	!LO:TX:t=P:problem:kreska pseudotaktowa	!
2d\	-o	.	.	2f\	-ti-
=7-	=7-	=7-	=7-	=7-	=7-
!	!	!LO:TX:t=P:problem:kreska pseudotaktowa	!	!	!
2B\	gra-	1G/	.	2g\	-as
!LO:TX:t=P:problem:kreska pseudotaktowa	!	!	!	!	!
2c\	.	.	.	1e\	De-
!	!	!LO:TX:t=P:problem:kreska pseudotaktowa	!	!	!
1.A\	.	1F/	.	.	.
.	.	.	.	1d\	.
=8-	=8-	=8-	=8-	=8-	=8-
!	!	!LO:TX:t=P:problem:kreska pseudotaktowa	!	!	!
.	.	1E/	.	.	.
!LO:TX:t=P:problem:kreska pseudotaktowa	!	!	!	!LO:TX:t=P:problem:kreska pseudotaktowa	!
2A\	-ti-	.	.	2c#X\	.
!LO:TX:t=P:problem:kreska pseudotaktowa	!	!	!	!LO:TX:t=P:problem:kreska pseudotaktowa	!
1A\	-as.	0D/	.	1d\	-o
=9-	=9-	=9-	=9-	=9-	=9-
!	!	!LO:TX:t=P:problem:kreska pseudotaktowa	!	!LO:N:xstem:cue	!
2r	.	.	.	4d\	.
.	.	.	.	4f\	.
1A\	De-	.	.	4e\	.
!	!	!	!	!LO:TX:t=P:problem:kreska pseudotaktowa	!
.	.	.	.	4d\	.
!	!	!LO:TX:t=P:problem:kreska pseudotaktowa	!	!	!
.	.	0A\	gra-	2cny\	gra-
4G/	.	.	.	4e\	.
!LO:TX:t=P:problem:kreska pseudotaktowa	!	!	!	!LO:TX:t=P:problem:kreska pseudotaktowa	!
4F/	.	.	.	4f\	.
!LO:LB:g=original	!	!	!	!LO:LB:g=original	!
=10-	=10-	=10-	=10-	=10-	=10-
4E/	o	.	.	2e\	.
4D/	.	.	.	.	.
!	!	!	!	!LO:TX:t=P:problem:kreska pseudotaktowa	!
1d\	.	.	.	2f\	.
!	!	!LO:TX:t=P:problem:kreska pseudotaktowa	!	!	!
.	.	1G/	.	1.g\	.
!LO:TX:t=P:problem:kreska pseudotaktowa	!	!	!	!	!
2c\	.	.	.	.	.
=11-	=11-	=11-	=11-	=11-	=11-
!	!	!LO:TX:t=P:problem:kreska pseudotaktowa	!	!	!
2.d\	gra-	1A\	.	.	.
!	!	!	!	!LO:TX:t=P:problem:kreska pseudotaktowa	!
.	.	.	.	2f#X\	-ti-
!LO:TX:t=P:problem:kreska pseudotaktowa	!	!	!	!	!
4d\	-ti-	.	.	.	.
!	!	!LO:TX:t=P:problem:kreska pseudotaktowa	!	!	!
2d\	-as	1Bn\	.	2g\	-as
!LO:TX:t=P:problem:kreska pseudotaktowa	!	!	!	!LO:TX:t=P:problem:kreska pseudotaktowa	!
2G/	De-	.	.	2d/	De-
=12-	=12-	=12-	=12-	=12-	=12-
!LO:TX:t=P:problem:kreska pseudotaktowa	!	!LO:TX:t=P:problem:kreska pseudotaktowa	!	!	!
1A\	-o	1c\	.	2e\	.
!	!	!	!	!LO:TX:t=P:problem:kreska pseudotaktowa	!
.	.	.	.	2fny\	.
!	!	!LO:TX:t=P:problem:kreska pseudotaktowa	!	!	!
2Bn\	gra-	1B\	.	2d\	.
!LO:TX:t=P:problem:kreska pseudotaktowa	!	!	!	!LO:TX:t=P:problem:kreska pseudotaktowa	!
2d\	.	.	.	2g\	.
=13-	=13-	=13-	=13-	=13-	=13-
!	!	!LO:TX:t=P:problem:kreska pseudotaktowa	!	!LO:TX:t=P:problem:kreska pseudotaktowa	!
2.A\	.	1A\	.	1fn\	-o
!LO:TX:t=P:problem:kreska pseudotaktowa	!	!	!	!	!
4G/	.	.	.	.	.
!	!	!LO:TX:t=P:problem:kreska pseudotaktowa	!	!	!
2G/	.	1G/	.	4e\	gra-
.	.	.	.	4d\	.
!LO:TX:t=P:problem:kreska pseudotaktowa	!	!	!	!	!
2E/	.	.	.	4c\	.
!	!	!	!	!LO:TX:t=P:problem:kreska pseudotaktowa	!
.	.	.	.	4B\	.
=14-	=14-	=14-	=14-	=14-	=14-
!	!	!LO:TX:t=P:problem:kreska pseudotaktowa	!	!	!
2F/	.	1F/	.	2A/	.
1A\	.	.	.	1d\	.
!	!	!LO:TX:t=P:problem:kreska pseudotaktowa	!	!	!
.	.	1G/	.	.	.
!	!	!	!	!LO:TX:t=P:problem:kreska pseudotaktowa	!
1G/	.	.	.	2c\	.
=15-	=15-	=15-	=15-	=15-	=15-
!	!	!LO:TX:t=P:problem:kreska pseudotaktowa	!	!LO:TX:t=P:problem:kreska pseudotaktowa	!
.	.	1A\	.	1d\	.
!LO:TX:t=P:problem:kreska pseudotaktowa	!	!	!	!	!
2F/	.	.	.	.	.
2G/	.	1.G/	.	2c\	.
!	!	!	!	!LO:TX:t=P:problem:kreska pseudotaktowa	!
1c\	.	.	.	2e\	.
=16-	=16-	=16-	=16-	=16-	=16-
.	.	.	.	2.d\	.
!LO:TX:t=P:problem:kreska pseudotaktowa	!	!LO:TX:t=P:problem:kreska pseudotaktowa	!	!	!
2B\	-ti-	2G/	-ti-	.	.
!	!	!	!	!LO:TX:t=P:problem:kreska pseudotaktowa	!
.	.	.	.	4d\	-ti-
!LO:N:vis=0	!	!LO:N:vis=0	!	!LO:N:vis=0	!
1c\;	-as.	1E/;	-as.	1e\;<	-as.
==	==	==	==	==	==
*-	*-	*-	*-	*-	*-
!!!system-decoration: [(s1,s2,s3)]
!!!RDF**kern: < = below
!!!EED: Andrzej Borzym
!!!EST: 2021-08-04
!!!AIN: 1 alto 2 tenor
!!!ENC: Krzysztof Stępień
!!!END: 2021-07-09
